X:1
T:Sallie Cooper
L:1/8
M:2/2
I:linebreak $
K:G
V:1 treble 
V:1
 Bc | dB G2 AGFA | G2 G2 [G,D]2 Bc | dBGB AGFA | G2 G2 [G,D]2 Ac | BAGB AGFD | G2 G2 [G,D]2 Bc |$ %7
 dBGB AGFA | G2 G2 [G,D]2 :: de | f2 df ed^ce | d2 d2 AB =c2 | BGBG AGFD | G2 G2 [DA]2 de |$ %14
 f2 a2 e2 ^c2 | d2 d2 AB =c2 | BGBG AGFD | G2 G2 [G,D]2 :| %18
